X:69
T:Santa Maria, Strela Do Dia (Cantiga 100)
C:Las Cantigas de Santa Maria
C:Alphonso X, El Sabio (1221-1284)
R:Cantigas
Z:Transcrit et/ou corrigé par B@D - 2005-03-24
Z:Pour toute observation mailto:-@-
M:C|
L:1/4
K:G
%%continueall 1
V:1
[P:Refrain]e2dc | B2Bc | d2e2 | A2A2 | e2dc |
w:San-ta Ma-ri-a Stre-la do di-a mos-tra nos
B2AB | cBAG | A2A2 :|
w:vi-a pe-ra Deus e-nos gui-a
d2e2 | (f3e) |
w:1.~ca ve-er_
w:2.~A mos-tiar_
w:3.~Gui-ar ben_
gfef | d2d2 | d2e2 | (f3e) | gfed | e2e2 |
w:fa-ze los er-ra-dos, que per-de-rer fo-ran per pe-ca-dor
w:nos de-ves car-rei-ra, por gã-ar-ar en-lo-da ma-nei-ra
w:nos po-do teu si-so, mais ca-ren-en pe-ra pa-ra-y-so
f2g2 | (a3f) | ga(g/f/)e | f2f2 | f2f2 (f3e) |
w:en-ten-der-er de que mui_ cul-pa-dos son~; mais per_
w:a sen par-ar luz e ver-_da-dei-ra que tu dar_
w:u Deus ten-en sen-pre goy'_ e ri-so po-ra qué_
gfef | d2d2 | e2dc | B2Bc | d2e2 | A2A2 |
w:ti son per-dõ-a-dos da ou-sa-di-a que lles fa-zi-a
w:nos po-des seu-llei-ra ca Deus a ti-a ou-tor-ga-ri-a
w:nen el cre-er qui-so e pra-zer mi-a se te pra-zi-a
e2dc | B2AB | cBAG | A2A2 |]
w:fa-zer fo-li-a mais que non de-ve-ri-a
w:e a que-ri-a por ti dar e da-ri-a
w:que foss a mi-a alm' en tal com-pa-ni-a
T:Percussion
K:P
M: 
V:1 clef=perc stafflines=1
ge g/g/ e | ge g/g/ e | ge g/g/ e | 




%%header "$P0	 $IR 	$P1"
%%footer $D - Éditions Galouvielle - 2009 - À usage librement privé dans le cadre familial

